tests/fixtures/preset_sonna_legacy.lrtemplate
s = {
    id = "sonna_legacy_v1",
    internalName = "Sonna Legacy",
    title = "Sonna Legacy",
    type = "Develop",
    value = {
        settings = {
            Temperature = 5400,
            Tint = 2,
            Exposure2012 = 0.55,
            Contrast2012 = 20,
            Highlights2012 = -55,
            Shadows2012 = 40,
            Whites2012 = 5,
            Blacks2012 = -25,
            Clarity2012 = 5,
            Vibrance = 18,
            Saturation = 8,
            SaturationAdjustmentRed = -10,
            SaturationAdjustmentOrange = 5,
            SaturationAdjustmentYellow = 0,
            SaturationAdjustmentGreen = -5,
            SaturationAdjustmentAqua = 0,
            SaturationAdjustmentBlue = -8,
            SaturationAdjustmentPurple = 0,
            SaturationAdjustmentMagenta = 0,
        },
    },
    uuid = "AA00BB11CC22DD33",
}
