tests/fixtures/preset_sonna_v1.xmp
<x:xmpmeta xmlns:x="adobe:ns:meta/" xmlns:rdf="http://www.w3.org/1999/02/22-rdf-syntax-ns#" xmlns:crs="http://ns.adobe.com/camera-raw-settings/1.0/">
  <rdf:RDF>
    <rdf:Description
      crs:ProcessVersion="15.4"
      crs:WhiteBalance="Custom"
      crs:Temperature="5200"
      crs:Tint="-3"
      crs:Exposure2012="0.35"
      crs:Contrast2012="15"
      crs:Highlights2012="-45"
      crs:Shadows2012="30"
      crs:Whites2012="10"
      crs:Blacks2012="-20"
      crs:Clarity2012="8"
      crs:Dehaze="0"
      crs:Vibrance="12"
      crs:Saturation="5"
      crs:Texture="10"
    />
  </rdf:RDF>
</x:xmpmeta>
